X:16244
T:Swiss Alemand. JC.232
M:2/4
L:1/16
Q:110
S:John Clare,Poet,Helpstone (1793-1864)
R:Allemande
O:England179
A:Northamptonshire
N:
N:No TS given: 2/4 adde
Z:P Headford
K:D
d3ef2f2|d2d2e4|(dc)BA B2c2|dcde d2A2|!
d3ef2f2|d2d2e4|(dc)BA B2c2|d6d2:|!
|:fgag fgag|gabae4|efgf efgf|fgafd4|!
d3ef2g2|d2d2e4|(dc)BA B2c2|d6d2:|]
